src/assets/cloud-with-snow.svg

<svg xmlns="http://www.w3.org/2000/svg" viewBox="0 0 20 20"><path fill="currentColor" d="M7.409 12.653c-.477 0-.864.388-.864.863 0 .478.387.864.864.864s.864-.387.864-.864c0-.475-.387-.863-.864-.863m-2.591 4.319c-.477 0-.864.387-.864.863 0 .478.387.864.864.864.476 0 .863-.387.863-.864.001-.477-.387-.863-.863-.863m-1.727-2.591c-.477 0-.864.387-.864.863s.387.864.864.864.864-.388.864-.864-.388-.863-.864-.863M10 16.108c-.477 0-.864.387-.864.863s.387.864.864.864.864-.387.864-.863-.387-.864-.864-.864m4.318-1.727c0-.477-.388-.864-.864-.864s-.863.388-.863.864c0 .478.387.863.863.863s.864-.386.864-.863m2.585-9.389c.002-.037.006-.074.006-.111 0-1.431-1.16-2.591-2.591-2.591-.653 0-1.248.244-1.704.642C11.692 1.508 10.096.563 8.273.563c-2.601 0-4.748 1.918-5.119 4.415C1.633 5.34.5 6.703.5 8.335c0 1.908 1.547 3.455 3.455 3.455h12.091c1.907 0 3.454-1.547 3.454-3.455 0-1.611-1.104-2.96-2.597-3.343m-.857 5.934H3.955c-1.429 0-2.591-1.162-2.591-2.591 0-1.204.817-2.238 1.99-2.517.343-.081.603-.364.655-.713.311-2.098 2.144-3.679 4.264-3.679 1.464 0 2.384.306 3.185 1.543.136.21.789.783 1.037.817.04.006.119.009.119.009.208 0 .41-.075.568-.214.315-.275.72-.428 1.136-.428.952 0 1.728.775 1.726 1.737l-.004.063c-.019.409.253.775.648.876 1.147.293 1.948 1.324 1.948 2.506.001 1.429-1.161 2.591-2.59 2.591m.863 4.318c-.477 0-.863.388-.863.864 0 .478.387.863.863.863s.863-.386.863-.863c0-.476-.386-.864-.863-.864m-2.591 2.591c-.477 0-.864.387-.864.864s.388.863.864.863.863-.387.863-.863c.001-.477-.386-.864-.863-.864"/></svg>

<svg xmlns="http://www.w3.org/2000/svg" viewBox="0 0 20 20">
  <path fill="currentColor" d="M7.409,12.653c-0.477,0-0.864,0.388-0.864,0.863c0,0.478,0.387,0.864,0.864,0.864s0.864-0.387,0.864-0.864C8.273,13.041,7.886,12.653,7.409,12.653 M4.818,16.972c-0.477,0-0.864,0.387-0.864,0.863c0,0.478,0.387,0.864,0.864,0.864c0.476,0,0.863-0.387,0.863-0.864C5.682,17.358,5.294,16.972,4.818,16.972 M3.091,14.381c-0.477,0-0.864,0.387-0.864,0.863s0.387,0.864,0.864,0.864s0.864-0.388,0.864-0.864S3.567,14.381,3.091,14.381 M10,16.108c-0.477,0-0.864,0.387-0.864,0.863S9.523,17.835,10,17.835s0.864-0.387,0.864-0.863S10.477,16.108,10,16.108 M14.318,14.381c0-0.477-0.388-0.864-0.864-0.864s-0.863,0.388-0.863,0.864c0,0.478,0.387,0.863,0.863,0.863S14.318,14.858,14.318,14.381 M16.903,4.992c0.002-0.037,0.006-0.074,0.006-0.111c0-1.431-1.16-2.591-2.591-2.591c-0.653,0-1.248,0.244-1.704,0.642c-0.922-1.424-2.518-2.369-4.341-2.369c-2.601,0-4.748,1.918-5.119,4.415C1.633,5.34,0.5,6.703,0.5,8.335c0,1.908,1.547,3.455,3.455,3.455h12.091c1.907,0,3.454-1.547,3.454-3.455C19.5,6.724,18.396,5.375,16.903,4.992 M16.046,10.926H3.955c-1.429,0-2.591-1.162-2.591-2.591c0-1.204,0.817-2.238,1.99-2.517c0.343-0.081,0.603-0.364,0.655-0.713C4.32,3.007,6.153,1.426,8.273,1.426c1.464,0,2.384,0.306,3.185,1.543c0.136,0.21,0.789,0.783,1.037,0.817c0.04,0.006,0.119,0.009,0.119,0.009c0.208,0,0.41-0.075,0.568-0.214c0.315-0.275,0.72-0.428,1.136-0.428c0.952,0,1.728,0.775,1.726,1.737L16.04,4.953c-0.019,0.409,0.253,0.775,0.648,0.876c1.147,0.293,1.948,1.324,1.948,2.506C18.637,9.764,17.475,10.926,16.046,10.926 M16.909,15.244c-0.477,0-0.863,0.388-0.863,0.864c0,0.478,0.387,0.863,0.863,0.863s0.863-0.386,0.863-0.863C17.772,15.632,17.386,15.244,16.909,15.244 M14.318,17.835c-0.477,0-0.864,0.387-0.864,0.864c0,0.477,0.388,0.863,0.864,0.863s0.863-0.387,0.863-0.863C15.182,18.222,14.795,17.835,14.318,17.835"/>
</svg>
